solution/ui/src/images/calculator_icon.svg

<svg viewBox="0 0 160 160" xmlns="http://www.w3.org/2000/svg"><circle cx="80" cy="80" fill="#00518b" r="80"/><path d="m116.19 27a64.12 64.12 0 1 0 19.27 20.71" fill="none" stroke="#f5f5f5" stroke-linecap="round" stroke-linejoin="round" stroke-width="2"/><circle cx="125.55" cy="36.99" fill="#047dbc" r="9.2" stroke="#f5f5f5" stroke-miterlimit="10" stroke-width="2"/><path d="m126 33.61v3.33h3.2v.85h-3.2v3.35h-.9v-3.35h-3.2v-.85h3.2v-3.33z" fill="#047dbc" stroke="#f5f5f5" stroke-linecap="round" stroke-linejoin="round" stroke-width="2"/><path d="m124.41 101.33c7.07-8.16 9.38-22.86 5.46-31.63" fill="none" stroke="#62a9dd" stroke-linecap="round" stroke-linejoin="round" stroke-width="2"/><path d="m47.53 37.91c-10.54 4.17-20 23.5-18.78 38.76" fill="none" stroke="#62a9dd" stroke-linecap="round" stroke-linejoin="round" stroke-width="2"/><path d="m56.21 44.55h49.44v72.04h-49.44z" fill="#0d123e"/><path d="m55.2 44.55h48.2v72.77h-48.2z" fill="#047dbc"/><path d="m64.05 48.76h35.55v15.13h-35.55z" fill="#969696"/><path d="m60.04 70.83h7.57v6.31h-7.57z" fill="#213469"/><path d="m75.4 70.83h7.57v6.31h-7.57z" fill="#213469"/><path d="m90.53 70.83h7.57v6.31h-7.57z" fill="#213469"/><path d="m60.27 85.96h7.57v6.31h-7.57z" fill="#213469"/><path d="m75.24 85.85h7.57v6.31h-7.57z" fill="#213469"/><path d="m60.27 101.1h7.57v6.31h-7.57z" fill="#213469"/><path d="m75.4 101.1h7.57v6.31h-7.57z" fill="#213469"/><path d="m91.22 85.96h6.31v20.81h-6.31z" fill="#213469"/><g fill="#f5f5f5"><path d="m69.07 79h-7.56a1.26 1.26 0 0 1 -1.26-1.27v-7.54a1.25 1.25 0 0 1 1.26-1.26h7.56a1.25 1.25 0 0 1 1.26 1.26v7.56a1.26 1.26 0 0 1 -1.26 1.25zm-6.3-2.53h5v-5h-5z"/><path d="m84.21 79h-7.57a1.26 1.26 0 0 1 -1.26-1.27v-7.54a1.25 1.25 0 0 1 1.26-1.26h7.57a1.26 1.26 0 0 1 1.26 1.26v7.56a1.27 1.27 0 0 1 -1.26 1.25zm-6.31-2.51h5v-5h-5z"/><path d="m99.34 79h-7.57a1.27 1.27 0 0 1 -1.26-1.27v-7.54a1.26 1.26 0 0 1 1.26-1.26h7.57a1.26 1.26 0 0 1 1.26 1.26v7.56a1.27 1.27 0 0 1 -1.26 1.25zm-6.34-2.51h5v-5h-5z"/><path d="m69.07 94.15h-7.56a1.26 1.26 0 0 1 -1.26-1.26v-7.57a1.25 1.25 0 0 1 1.26-1.26h7.56a1.25 1.25 0 0 1 1.26 1.26v7.57a1.26 1.26 0 0 1 -1.26 1.26zm-6.3-2.52h5v-5h-5z"/><path d="m84.21 94.15h-7.57a1.26 1.26 0 0 1 -1.26-1.26v-7.57a1.25 1.25 0 0 1 1.26-1.26h7.57a1.26 1.26 0 0 1 1.26 1.26v7.57a1.27 1.27 0 0 1 -1.26 1.26zm-6.31-2.52h5v-5h-5z"/><path d="m69.07 109.28h-7.56a1.25 1.25 0 0 1 -1.26-1.28v-7.57a1.26 1.26 0 0 1 1.26-1.26h7.56a1.26 1.26 0 0 1 1.26 1.26v7.57a1.25 1.25 0 0 1 -1.26 1.26zm-6.3-2.52h5v-5.05h-5z"/><path d="m84.21 109.28h-7.57a1.25 1.25 0 0 1 -1.26-1.28v-7.57a1.26 1.26 0 0 1 1.26-1.26h7.57a1.27 1.27 0 0 1 1.26 1.26v7.57a1.26 1.26 0 0 1 -1.26 1.26zm-6.31-2.52h5v-5.05h-5z"/><path d="m101.86 118.11h-42.86a6.31 6.31 0 0 1 -6.3-6.31v-36.57a1.26 1.26 0 1 1 2.52 0v36.57a3.79 3.79 0 0 0 3.78 3.79h42.88a3.79 3.79 0 0 0 3.78-3.79v-7.56a1.27 1.27 0 0 1 2.53 0v7.56a6.33 6.33 0 0 1 -6.31 6.31z"/><path d="m106.9 100.45a1.26 1.26 0 0 1 -1.26-1.26v-50.44a3.78 3.78 0 0 0 -3.78-3.75h-42.86a3.78 3.78 0 0 0 -3.78 3.78v21.41a1.26 1.26 0 0 1 -2.52 0v-21.44a6.3 6.3 0 0 1 6.3-6.3h42.88a6.31 6.31 0 0 1 6.31 6.3v50.44a1.26 1.26 0 0 1 -1.27 1.26z"/><path d="m99.34 65.14h-37.83a1.25 1.25 0 0 1 -1.26-1.26v-15.13a1.25 1.25 0 0 1 1.26-1.26h5a1.26 1.26 0 1 1 0 2.52h-3.74v12.61h35.31v-12.62h-26.49a1.26 1.26 0 0 1 0-2.52h27.75a1.26 1.26 0 0 1 1.26 1.26v15.14a1.26 1.26 0 0 1 -1.26 1.26z"/><path d="m99.34 109.28h-7.57a1.26 1.26 0 0 1 -1.26-1.28v-13.85a1.26 1.26 0 1 1 2.52 0v12.61h5v-20.18h-5.03v2.52a1.26 1.26 0 1 1 -2.52 0v-3.78a1.26 1.26 0 0 1 1.26-1.26h7.57a1.26 1.26 0 0 1 1.26 1.26v22.68a1.26 1.26 0 0 1 -1.26 1.26z"/><path d="m32.11 102.76v-2a5.65 5.65 0 0 1 -3-.86l.47-1.31a5.19 5.19 0 0 0 2.81.84c1.39 0 2.32-.8 2.32-1.91s-.76-1.74-2.2-2.32c-2-.78-3.22-1.68-3.22-3.38a3.2 3.2 0 0 1 2.94-3.14v-2h1.21v1.89a5.24 5.24 0 0 1 2.54.68l-.48 1.35a4.77 4.77 0 0 0 -2.5-.66c-1.5 0-2.07.9-2.07 1.68 0 1 .73 1.52 2.43 2.22 2 .82 3 1.84 3 3.57a3.39 3.39 0 0 1 -3.08 3.32v2z" stroke="#f5f5f5" stroke-linecap="round" stroke-linejoin="round"/></g></svg>

<svg xmlns="http://www.w3.org/2000/svg" viewBox="0 0 160 160"><defs><style>.cls-1{fill:#00518b;}.cls-2,.cls-5{fill:none;}.cls-11,.cls-2,.cls-3,.cls-4{stroke:#f5f5f5;}.cls-11,.cls-2,.cls-4,.cls-5{stroke-linecap:round;stroke-linejoin:round;}.cls-2,.cls-3,.cls-4,.cls-5{stroke-width:2px;}.cls-3,.cls-4,.cls-7{fill:#047dbc;}.cls-3{stroke-miterlimit:10;}.cls-5{stroke:#62a9dd;}.cls-6{fill:#0d123e;}.cls-8{fill:#969696;}.cls-9{fill:#213469;}.cls-10,.cls-11{fill:#f5f5f5;}</style></defs><g id="Layer_2" data-name="Layer 2"><g id="Layer_2-2" data-name="Layer 2"><circle class="cls-1" cx="80" cy="80" r="80"/><path class="cls-2" d="M116.19,27a64.12,64.12,0,1,0,19.27,20.71"/><circle class="cls-3" cx="125.55" cy="36.99" r="9.2"/><path class="cls-4" d="M126,33.61v3.33h3.2v.85H126v3.35h-.9V37.79h-3.2v-.85h3.2V33.61Z"/><path class="cls-5" d="M124.41,101.33c7.07-8.16,9.38-22.86,5.46-31.63"/><path class="cls-5" d="M47.53,37.91c-10.54,4.17-20,23.5-18.78,38.76"/><rect class="cls-6" x="56.21" y="44.55" width="49.44" height="72.04"/><rect class="cls-7" x="55.2" y="44.55" width="48.2" height="72.77"/><rect class="cls-8" x="64.05" y="48.76" width="35.55" height="15.13"/><rect class="cls-9" x="60.04" y="70.83" width="7.57" height="6.31"/><rect class="cls-9" x="75.4" y="70.83" width="7.57" height="6.31"/><rect class="cls-9" x="90.53" y="70.83" width="7.57" height="6.31"/><rect class="cls-9" x="60.27" y="85.96" width="7.57" height="6.31"/><rect class="cls-9" x="75.24" y="85.85" width="7.57" height="6.31"/><rect class="cls-9" x="60.27" y="101.1" width="7.57" height="6.31"/><rect class="cls-9" x="75.4" y="101.1" width="7.57" height="6.31"/><rect class="cls-9" x="91.22" y="85.96" width="6.31" height="20.81"/><path class="cls-10" d="M69.07,79H61.51a1.26,1.26,0,0,1-1.26-1.27V70.19a1.25,1.25,0,0,1,1.26-1.26h7.56a1.25,1.25,0,0,1,1.26,1.26v7.56A1.26,1.26,0,0,1,69.07,79Zm-6.3-2.53h5v-5h-5Z"/><path class="cls-10" d="M84.21,79H76.64a1.26,1.26,0,0,1-1.26-1.27V70.19a1.25,1.25,0,0,1,1.26-1.26h7.57a1.26,1.26,0,0,1,1.26,1.26v7.56A1.27,1.27,0,0,1,84.21,79ZM77.9,76.49h5v-5h-5Z"/><path class="cls-10" d="M99.34,79H91.77a1.27,1.27,0,0,1-1.26-1.27V70.19a1.26,1.26,0,0,1,1.26-1.26h7.57a1.26,1.26,0,0,1,1.26,1.26v7.56A1.27,1.27,0,0,1,99.34,79ZM93,76.49h5v-5H93Z"/><path class="cls-10" d="M69.07,94.15H61.51a1.26,1.26,0,0,1-1.26-1.26V85.32a1.25,1.25,0,0,1,1.26-1.26h7.56a1.25,1.25,0,0,1,1.26,1.26v7.57a1.26,1.26,0,0,1-1.26,1.26Zm-6.3-2.52h5v-5h-5Z"/><path class="cls-10" d="M84.21,94.15H76.64a1.26,1.26,0,0,1-1.26-1.26V85.32a1.25,1.25,0,0,1,1.26-1.26h7.57a1.26,1.26,0,0,1,1.26,1.26v7.57a1.27,1.27,0,0,1-1.26,1.26ZM77.9,91.63h5v-5h-5Z"/><path class="cls-10" d="M69.07,109.28H61.51A1.25,1.25,0,0,1,60.25,108v-7.57a1.26,1.26,0,0,1,1.26-1.26h7.56a1.26,1.26,0,0,1,1.26,1.26V108a1.25,1.25,0,0,1-1.26,1.26Zm-6.3-2.52h5v-5.05h-5Z"/><path class="cls-10" d="M84.21,109.28H76.64A1.25,1.25,0,0,1,75.38,108v-7.57a1.26,1.26,0,0,1,1.26-1.26h7.57a1.27,1.27,0,0,1,1.26,1.26V108a1.26,1.26,0,0,1-1.26,1.26Zm-6.31-2.52h5v-5.05h-5Z"/><path class="cls-10" d="M101.86,118.11H59a6.31,6.31,0,0,1-6.3-6.31V75.23a1.26,1.26,0,1,1,2.52,0V111.8A3.79,3.79,0,0,0,59,115.59h42.88a3.79,3.79,0,0,0,3.78-3.79v-7.56a1.27,1.27,0,0,1,2.53,0v7.56a6.33,6.33,0,0,1-6.31,6.31Z"/><path class="cls-10" d="M106.9,100.45a1.26,1.26,0,0,1-1.26-1.26V48.75A3.78,3.78,0,0,0,101.86,45H59a3.78,3.78,0,0,0-3.78,3.78V70.19a1.26,1.26,0,0,1-2.52,0V48.75a6.3,6.3,0,0,1,6.3-6.3h42.88a6.31,6.31,0,0,1,6.31,6.3V99.19a1.26,1.26,0,0,1-1.27,1.26Z"/><path class="cls-10" d="M99.34,65.14H61.51a1.25,1.25,0,0,1-1.26-1.26V48.75a1.25,1.25,0,0,1,1.26-1.26h5a1.26,1.26,0,1,1,0,2.52H62.77V62.62H98.08V50H71.59a1.26,1.26,0,0,1,0-2.52H99.34a1.26,1.26,0,0,1,1.26,1.26V63.88a1.26,1.26,0,0,1-1.26,1.26Z"/><path class="cls-10" d="M99.34,109.28H91.77A1.26,1.26,0,0,1,90.51,108V94.15a1.26,1.26,0,1,1,2.52,0v12.61h5V86.58H93V89.1a1.26,1.26,0,1,1-2.52,0V85.32a1.26,1.26,0,0,1,1.26-1.26h7.57a1.26,1.26,0,0,1,1.26,1.26V108a1.26,1.26,0,0,1-1.26,1.26Z"/><path class="cls-11" d="M32.11,102.76v-2a5.65,5.65,0,0,1-3-.86l.47-1.31a5.19,5.19,0,0,0,2.81.84c1.39,0,2.32-.8,2.32-1.91s-.76-1.74-2.2-2.32c-2-.78-3.22-1.68-3.22-3.38a3.2,3.2,0,0,1,2.94-3.14v-2h1.21v1.89a5.24,5.24,0,0,1,2.54.68L35.5,90.6A4.77,4.77,0,0,0,33,89.94c-1.5,0-2.07.9-2.07,1.68,0,1,.73,1.52,2.43,2.22,2,.82,3,1.84,3,3.57a3.39,3.39,0,0,1-3.08,3.32v2Z"/></g></g></svg>
